BOEHME
CUT[THRAENEN HAB ICH VIELE]
REG[Europa, Mitteleuropa, Deutschland]
KEY[B0496  08  D 4/4]
MEL[-1-3  -5_-5_-5_-6-5  -5-4-4-3-4-4
    -5-4  -3_-3_-5_-4-3  -4__0_
    -1-3  -5_-5_-5_-6-5  -5-4-4-3-4-4
    -5-4  -3_-3_-5_-4-3  -4__0_
    -1-1  -6-6-6-6-6_1-6  -6-5-5-51_
    11  2_2_-7_-6-7  1__0_
    -1-3  -5-5-5-5-5_1-7  -6-6-6-6-6_
    21  -7_-5_-5_-6-7  1__0_
    -1-3  -5-5-5-5-5_1-7  -6-6-6-6-6_
    21  -7_-5_-5_-6-7  1__0_ //] >>
FCT[Abschieds - Lied]
